small/extra/apps/standard/hexchat.svg

<?xml version="1.0" encoding="UTF-8" standalone="no"?>
<!-- Created with Inkscape (http://www.inkscape.org/) -->

<svg
   xmlns:dc="http://purl.org/dc/elements/1.1/"
   xmlns:cc="http://creativecommons.org/ns#"
   xmlns:rdf="http://www.w3.org/1999/02/22-rdf-syntax-ns#"
   xmlns:svg="http://www.w3.org/2000/svg"
   xmlns="http://www.w3.org/2000/svg"
   xmlns:sodipodi="http://sodipodi.sourceforge.net/DTD/sodipodi-0.dtd"
   xmlns:inkscape="http://www.inkscape.org/namespaces/inkscape"
   version="1.1"
   width="100%"
   height="100%"
   viewBox="0 0 512 512"
   id="svg2"
   inkscape:version="0.91+devel r13804 custom"
   sodipodi:docname="hexchat.svg">
  <sodipodi:namedview
     pagecolor="#ffffff"
     bordercolor="#666666"
     borderopacity="1"
     objecttolerance="10"
     gridtolerance="10"
     guidetolerance="10"
     inkscape:pageopacity="0"
     inkscape:pageshadow="2"
     inkscape:window-width="1366"
     inkscape:window-height="709"
     id="namedview69"
     showgrid="false"
     inkscape:zoom="0.4609375"
     inkscape:cx="318.91525"
     inkscape:cy="189.83051"
     inkscape:window-x="-2"
     inkscape:window-y="-3"
     inkscape:window-maximized="1"
     inkscape:current-layer="svg2" />
  <metadata
     id="metadata135">
    <rdf:RDF>
      <cc:Work
         rdf:about="">
        <dc:format>image/svg+xml</dc:format>
        <dc:type
           rdf:resource="http://purl.org/dc/dcmitype/StillImage" />
        <dc:title></dc:title>
      </cc:Work>
    </rdf:RDF>
  </metadata>
  <defs
     id="defs4" />
  <text
     x="-1.597"
     y="192.28"
     id="text11"
     style="font-size:129.22999573px;line-height:125%;letter-spacing:0;word-spacing:0;font-family:Gentium Book Basic">
    <tspan
       x="-1.597"
       y="192.28"
       id="tspan13" />
  </text>
  <text
     x="196.67999"
     y="422.44"
     transform="scale(4.0128,0.2492)"
     id="text15"
     style="font-size:46.95399857px;text-anchor:middle;font-family:Arial" />
  <text
     x="579.66998"
     y="112.28"
     id="text17"
     style="font-size:129.22999573px;line-height:125%;letter-spacing:0;word-spacing:0;font-family:Gentium Book Basic">
    <tspan
       x="579.66998"
       y="112.28"
       id="tspan19" />
  </text>
  <text
     x="341.53"
     y="101.4"
     transform="scale(4.0128,0.2492)"
     id="text21"
     style="font-size:46.95399857px;text-anchor:middle;font-family:Arial" />
  <text
     x="-491.91"
     y="-68.978996"
     id="text23"
     style="font-size:129.22999573px;line-height:125%;letter-spacing:0;word-spacing:0;font-family:Gentium Book Basic">
    <tspan
       x="-491.91"
       y="-68.978996"
       id="tspan25" />
  </text>
  <text
     x="74.489998"
     y="-625.94"
     transform="scale(4.0128,0.2492)"
     id="text27"
     style="font-size:46.95399857px;text-anchor:middle;font-family:Arial" />
  <text
     x="606.14001"
     y="-285.45001"
     id="text29"
     style="font-size:129.22999573px;line-height:125%;letter-spacing:0;word-spacing:0;font-family:Gentium Book Basic">
    <tspan
       x="606.14001"
       y="-285.45001"
       id="tspan31" />
  </text>
  <text
     x="348.13"
     y="-1494.62"
     transform="scale(4.0128,0.2492)"
     id="text33"
     style="font-size:46.95399857px;text-anchor:middle;font-family:Arial" />
  <text
     x="1187.41"
     y="-365.45001"
     id="text35"
     style="font-size:129.22999573px;line-height:125%;letter-spacing:0;word-spacing:0;font-family:Gentium Book Basic">
    <tspan
       x="1187.41"
       y="-365.45001"
       id="tspan37" />
  </text>
  <text
     x="492.98001"
     y="-1815.65"
     transform="scale(4.0128,0.2492)"
     id="text39"
     style="font-size:46.95399857px;text-anchor:middle;font-family:Arial" />
  <text
     x="798.28998"
     y="-837.84998"
     id="text41"
     style="font-size:129.22999573px;line-height:125%;letter-spacing:0;word-spacing:0;font-family:Gentium Book Basic">
    <tspan
       x="798.28998"
       y="-837.84998"
       id="tspan43" />
  </text>
  <text
     x="396.01001"
     y="-3711.3"
     transform="scale(4.0128,0.2492)"
     id="text45"
     style="font-size:46.95399857px;text-anchor:middle;font-family:Arial" />
  <text
     x="1379.55"
     y="-917.85999"
     id="text47"
     style="font-size:129.22999573px;line-height:125%;letter-spacing:0;word-spacing:0;font-family:Gentium Book Basic">
    <tspan
       x="1379.55"
       y="-917.85999"
       id="tspan49" />
  </text>
  <text
     x="540.85999"
     y="-4032.3401"
     transform="scale(4.0128,0.2492)"
     id="text51"
     style="font-size:46.95399857px;text-anchor:middle;font-family:Arial" />
  <text
     x="-453.25"
     y="496.85999"
     id="text53"
     style="font-size:208.33000183px;line-height:125%;letter-spacing:0;word-spacing:0;font-family:Gentium Book Basic">
    <tspan
       x="-453.25"
       y="496.85999"
       id="tspan55" />
  </text>
  <path
     d="M 26,0 C 11.603,0 0,11.603 0,26 l 0,460 c 0,14.397 11.603,26 26,26 l 460,0 c 14.397,0 26,-11.603 26,-26 L 512,26 C 512,11.603 500.397,0 486,0 L 26,0"
     inkscape:connector-curvature="0"
     id="path9-8"
     style="fill:#8126ae" />
  <text
     sodipodi:linespacing="125%"
     x="-32.601002"
     y="226.57001"
     id="text11-9"
     style="font-size:129.22999573px;line-height:125%;font-family:'Gentium Book Basic';letter-spacing:0;word-spacing:0">
    <tspan
       x="-32.601002"
       y="226.57001"
       id="tspan13-5" />
  </text>
  <text
     x="188.95905"
     y="560.01715"
     transform="scale(4.0128205,0.24920128)"
     id="text15-7"
     style="font-size:46.95399857px;font-family:Arial;text-anchor:middle" />
  <text
     sodipodi:linespacing="125%"
     x="548.66998"
     y="146.57001"
     id="text17-2"
     style="font-size:129.22999573px;line-height:125%;font-family:'Gentium Book Basic';letter-spacing:0;word-spacing:0">
    <tspan
       x="548.66998"
       y="146.57001"
       id="tspan19-6" />
  </text>
  <text
     x="333.80829"
     y="238.98878"
     transform="scale(4.0128205,0.24920128)"
     id="text21-2"
     style="font-size:46.95399857px;font-family:Arial;text-anchor:middle" />
  <text
     sodipodi:linespacing="125%"
     x="-522.90997"
     y="-34.692001"
     id="text23-7"
     style="font-size:129.22999573px;line-height:125%;font-family:'Gentium Book Basic';letter-spacing:0;word-spacing:0">
    <tspan
       x="-522.90997"
       y="-34.692001"
       id="tspan25-2" />
  </text>
  <text
     x="66.766655"
     y="-488.35748"
     transform="scale(4.0128205,0.24920128)"
     id="text27-1"
     style="font-size:46.95399857px;font-family:Arial;text-anchor:middle" />
  <text
     sodipodi:linespacing="125%"
     x="575.14001"
     y="-251.16"
     id="text29-7"
     style="font-size:129.22999573px;line-height:125%;font-family:'Gentium Book Basic';letter-spacing:0;word-spacing:0">
    <tspan
       x="575.14001"
       y="-251.16"
       id="tspan31-5" />
  </text>
  <text
     x="340.40826"
     y="-1357.0231"
     transform="scale(4.0128205,0.24920128)"
     id="text33-2"
     style="font-size:46.95399857px;font-family:Arial;text-anchor:middle" />
  <text
     sodipodi:linespacing="125%"
     x="1156.41"
     y="-331.17001"
     id="text35-9"
     style="font-size:129.22999573px;line-height:125%;font-family:'Gentium Book Basic';letter-spacing:0;word-spacing:0">
    <tspan
       x="1156.41"
       y="-331.17001"
       id="tspan37-3" />
  </text>
  <text
     x="485.25754"
     y="-1678.0614"
     transform="scale(4.0128205,0.24920128)"
     id="text39-3"
     style="font-size:46.95399857px;font-family:Arial;text-anchor:middle" />
  <text
     sodipodi:linespacing="125%"
     x="767.28998"
     y="-803.57001"
     id="text41-3"
     style="font-size:129.22999573px;line-height:125%;font-family:'Gentium Book Basic';letter-spacing:0;word-spacing:0">
    <tspan
       x="767.28998"
       y="-803.57001"
       id="tspan43-8" />
  </text>
  <text
     x="388.28802"
     y="-3573.7017"
     transform="scale(4.0128205,0.24920128)"
     id="text45-7"
     style="font-size:46.95399857px;font-family:Arial;text-anchor:middle" />
  <text
     sodipodi:linespacing="125%"
     x="1348.55"
     y="-883.57001"
     id="text47-9"
     style="font-size:129.22999573px;line-height:125%;font-family:'Gentium Book Basic';letter-spacing:0;word-spacing:0">
    <tspan
       x="1348.55"
       y="-883.57001"
       id="tspan49-5" />
  </text>
  <text
     x="533.13727"
     y="-3894.72"
     transform="scale(4.0128205,0.24920128)"
     id="text51-0"
     style="font-size:46.95399857px;font-family:Arial;text-anchor:middle" />
  <text
     sodipodi:linespacing="125%"
     x="-484.25"
     y="531.15002"
     id="text53-8"
     style="font-size:208.33000183px;line-height:125%;font-family:'Gentium Book Basic';letter-spacing:0;word-spacing:0">
    <tspan
       x="-484.25"
       y="531.15002"
       id="tspan55-7" />
  </text>
  <path
     d="M 269.71094 72.896484 C 263.64718 72.916474 257.55985 72.975232 251.45312 73.033203 L 251.44922 73.029297 C 202.57322 73.494297 155.40945 76.461125 146.18945 81.578125 L 146.18945 81.580078 C 127.76045 91.811078 40.79 239.23961 41 259.34961 C 41.157 273.95161 88.624066 353.19992 121.78906 399.41992 C 121.41206 400.12592 120.99119 400.85264 120.61719 401.55664 L 120.61914 401.56055 L 131.14453 412.08594 C 136.41857 418.96506 141.07493 424.55294 144.73047 428.20508 L 228.52539 512 L 486 512 C 500.397 512 512 500.397 512 486 L 512 229.31055 L 365 82.310547 C 362.925 80.235547 361.17731 78.786406 359.82031 78.066406 L 372.38672 90.632812 C 372.39265 90.640023 372.39836 90.647082 372.4043 90.654297 L 359.82031 78.070312 C 351.66331 73.747312 312.20847 72.763391 269.73047 72.900391 L 353.9043 157.07422 L 353.89844 157.08398 L 269.71094 72.896484 z "
     id="path59-5"
     style="opacity:0.25" />
  <path
     d="m 269.71,72.896 c -6.067,0.02 -12.157,0.08 -18.267,0.138 -48.876,0.465 -96.04,3.431 -105.26,8.548 -18.429,10.231 -105.4,157.66 -105.19,177.77 0.157,14.602 47.625,93.85 80.79,140.07 -0.377,0.706 -0.798,1.433 -1.172,2.137 l 2.689,0 c 11.864,16.378 21.77,28.351 26.676,30.95 18.645,9.879 195.6,8.232 214.03,-1.999 18.429,-10.231 107.19,-155.04 106.98,-175.15 -0.216,-20.11 -92.54,-167.41 -111.18,-177.29 -8.157,-4.323 -47.612,-5.306 -90.09,-5.169 m -16.957,42.32 c 20.05,-0.196 39.633,0.498 54.938,1.724 l -52.04,87.27 -53.01,-86.78 c 13.341,-1.21 30.715,-2.02 50.11,-2.205 m 105.94,34.33 c 25.329,36.18 60.06,95.34 60.18,106.84 0.115,10.977 -31.2,67.17 -55.828,104.77 -4.375,-7.526 -8.977,-15.309 -14.06,-23.714 -15.357,-25.655 -34.379,-53.55 -57,-83.61 l 66.73,-104.3 m -208.45,4.481 64.52,98.99 c -19.398,27.586 -37.04,53.686 -52.945,78.24 -5.857,9.201 -11.285,18.198 -16.613,27.09 -25.398,-35.933 -57.11,-88.12 -57.21,-98.91 -0.117,-11.166 35.467,-68.33 62.24,-105.39 m 101.74,148.68 c 12.12,17.1 22.755,33.906 31.917,50.46 9.01,15.546 17.209,30.958 24.746,46.26 -32.541,1.828 -84.36,0.693 -113.8,-2.482 2.304,-4.595 5.28,-10.223 9.03,-16.888 5.119,-9.104 10.547,-18.605 16.199,-28.537 5.926,-9.931 11.713,-19.296 17.37,-28.12 5.927,-8.827 10.772,-15.714 14.55,-20.679"
     inkscape:connector-curvature="0"
     id="path127"
     style="fill:#ffffff" />
</svg>

<?xml version="1.0" encoding="UTF-8" standalone="no"?>
<!-- Created with Inkscape (http://www.inkscape.org/) -->
<svg id="svg2" xmlns:rdf="http://www.w3.org/1999/02/22-rdf-syntax-ns#" xmlns="http://www.w3.org/2000/svg" height="100%" width="100%" version="1.1" xmlns:cc="http://creativecommons.org/ns#" xmlns:dc="http://purl.org/dc/elements/1.1/" viewBox="0 0 512 512">
 <metadata id="metadata135">
  <rdf:RDF>
   <cc:Work rdf:about="">
    <dc:format>image/svg+xml</dc:format>
    <dc:type rdf:resource="http://purl.org/dc/dcmitype/StillImage"/>
    <dc:title/>
   </cc:Work>
  </rdf:RDF>
 </metadata>
 <text id="text11" style="word-spacing:0;letter-spacing:0" font-size="129.23px" line-height="125%" y="192.28" x="-1.597" font-family="Gentium Book Basic">
  <tspan id="tspan13" y="192.28" x="-1.597"/>
 </text>
 <text id="text15" style="text-anchor:middle" transform="scale(4.0128 .2492)" font-size="46.954px" y="422.44" x="196.67999" font-family="Arial"/>
 <text id="text17" style="word-spacing:0;letter-spacing:0" font-size="129.23px" line-height="125%" y="112.28" x="579.66998" font-family="Gentium Book Basic">
  <tspan id="tspan19" y="112.28" x="579.66998"/>
 </text>
 <text id="text21" style="text-anchor:middle" transform="scale(4.0128 .2492)" font-size="46.954px" y="101.4" x="341.53" font-family="Arial"/>
 <text id="text23" style="word-spacing:0;letter-spacing:0" font-size="129.23px" line-height="125%" y="-68.978996" x="-491.91" font-family="Gentium Book Basic">
  <tspan id="tspan25" y="-68.978996" x="-491.91"/>
 </text>
 <text id="text27" style="text-anchor:middle" transform="scale(4.0128 .2492)" font-size="46.954px" y="-625.94" x="74.489998" font-family="Arial"/>
 <text id="text29" style="word-spacing:0;letter-spacing:0" font-size="129.23px" line-height="125%" y="-285.45001" x="606.14001" font-family="Gentium Book Basic">
  <tspan id="tspan31" y="-285.45001" x="606.14001"/>
 </text>
 <text id="text33" style="text-anchor:middle" transform="scale(4.0128 .2492)" font-size="46.954px" y="-1494.62" x="348.13" font-family="Arial"/>
 <text id="text35" style="word-spacing:0;letter-spacing:0" font-size="129.23px" line-height="125%" y="-365.45001" x="1187.41" font-family="Gentium Book Basic">
  <tspan id="tspan37" y="-365.45001" x="1187.41"/>
 </text>
 <text id="text39" style="text-anchor:middle" transform="scale(4.0128 .2492)" font-size="46.954px" y="-1815.65" x="492.98001" font-family="Arial"/>
 <text id="text41" style="word-spacing:0;letter-spacing:0" font-size="129.23px" line-height="125%" y="-837.84998" x="798.28998" font-family="Gentium Book Basic">
  <tspan id="tspan43" y="-837.84998" x="798.28998"/>
 </text>
 <text id="text45" style="text-anchor:middle" transform="scale(4.0128 .2492)" font-size="46.954px" y="-3711.3" x="396.01001" font-family="Arial"/>
 <text id="text47" style="word-spacing:0;letter-spacing:0" font-size="129.23px" line-height="125%" y="-917.85999" x="1379.55" font-family="Gentium Book Basic">
  <tspan id="tspan49" y="-917.85999" x="1379.55"/>
 </text>
 <text id="text51" style="text-anchor:middle" transform="scale(4.0128 .2492)" font-size="46.954px" y="-4032.3401" x="540.85999" font-family="Arial"/>
 <text id="text53" style="word-spacing:0;letter-spacing:0" font-size="208.33px" line-height="125%" y="496.85999" x="-453.25" font-family="Gentium Book Basic">
  <tspan id="tspan55" y="496.85999" x="-453.25"/>
 </text>
 <path id="path9-8" d="m26 0c-14.397 0-26 11.603-26 26v460c0 14.397 11.603 26 26 26h460c14.397 0 26-11.603 26-26v-460c0-14.397-11.6-26-26-26h-460" fill="#8126ae"/>
 <text id="text11-9" font-size="129.23px" style="word-spacing:0;letter-spacing:0" line-height="125%" y="226.57001" x="-32.601002" font-family="&apos;Gentium Book Basic&apos;">
  <tspan id="tspan13-5" y="226.57001" x="-32.601002"/>
 </text>
 <text id="text15-7" style="text-anchor:middle" transform="scale(4.0128 .24920)" font-size="46.954px" y="560.01715" x="188.95905" font-family="Arial"/>
 <text id="text17-2" font-size="129.23px" style="word-spacing:0;letter-spacing:0" line-height="125%" y="146.57001" x="548.66998" font-family="&apos;Gentium Book Basic&apos;">
  <tspan id="tspan19-6" y="146.57001" x="548.66998"/>
 </text>
 <text id="text21-2" style="text-anchor:middle" transform="scale(4.0128 .24920)" font-size="46.954px" y="238.98878" x="333.80829" font-family="Arial"/>
 <text id="text23-7" font-size="129.23px" style="word-spacing:0;letter-spacing:0" line-height="125%" y="-34.692001" x="-522.90997" font-family="&apos;Gentium Book Basic&apos;">
  <tspan id="tspan25-2" y="-34.692001" x="-522.90997"/>
 </text>
 <text id="text27-1" style="text-anchor:middle" transform="scale(4.0128 .24920)" font-size="46.954px" y="-488.35748" x="66.766655" font-family="Arial"/>
 <text id="text29-7" font-size="129.23px" style="word-spacing:0;letter-spacing:0" line-height="125%" y="-251.16" x="575.14001" font-family="&apos;Gentium Book Basic&apos;">
  <tspan id="tspan31-5" y="-251.16" x="575.14001"/>
 </text>
 <text id="text33-2" style="text-anchor:middle" transform="scale(4.0128 .24920)" font-size="46.954px" y="-1357.0231" x="340.40826" font-family="Arial"/>
 <text id="text35-9" font-size="129.23px" style="word-spacing:0;letter-spacing:0" line-height="125%" y="-331.17001" x="1156.41" font-family="&apos;Gentium Book Basic&apos;">
  <tspan id="tspan37-3" y="-331.17001" x="1156.41"/>
 </text>
 <text id="text39-3" style="text-anchor:middle" transform="scale(4.0128 .24920)" font-size="46.954px" y="-1678.0614" x="485.25754" font-family="Arial"/>
 <text id="text41-3" font-size="129.23px" style="word-spacing:0;letter-spacing:0" line-height="125%" y="-803.57001" x="767.28998" font-family="&apos;Gentium Book Basic&apos;">
  <tspan id="tspan43-8" y="-803.57001" x="767.28998"/>
 </text>
 <text id="text45-7" style="text-anchor:middle" transform="scale(4.0128 .24920)" font-size="46.954px" y="-3573.7017" x="388.28802" font-family="Arial"/>
 <text id="text47-9" font-size="129.23px" style="word-spacing:0;letter-spacing:0" line-height="125%" y="-883.57001" x="1348.55" font-family="&apos;Gentium Book Basic&apos;">
  <tspan id="tspan49-5" y="-883.57001" x="1348.55"/>
 </text>
 <text id="text51-0" style="text-anchor:middle" transform="scale(4.0128 .24920)" font-size="46.954px" y="-3894.72" x="533.13727" font-family="Arial"/>
 <text id="text53-8" font-size="208.33px" style="word-spacing:0;letter-spacing:0" line-height="125%" y="531.15002" x="-484.25" font-family="&apos;Gentium Book Basic&apos;">
  <tspan id="tspan55-7" y="531.15002" x="-484.25"/>
 </text>
 <path id="path59-5" opacity=".25" d="m269.71 72.896c-6.06 0.02-12.15 0.079-18.26 0.137v-0.004c-48.88 0.465-96.04 3.432-105.26 8.549v0.002c-18.43 10.231-105.4 157.66-105.19 177.77 0.157 14.6 47.624 93.85 80.79 140.07-0.38 0.71-0.8 1.43-1.17 2.14l10.52 10.53c5.28 6.88 9.93 12.46 13.59 16.12l83.8 83.79h257.47c14.4 0 26-11.6 26-26v-256.69l-147-147c-2.08-2.074-3.82-3.524-5.18-4.244l12.57 12.567c0 0.007 0.01 0.014 0.01 0.021l-12.58-12.584c-8.16-4.323-47.61-5.307-90.09-5.17l84.17 84.17v0.01l-84.19-84.184z"/>
 <path id="path127" d="m269.71 72.896c-6.067 0.02-12.157 0.08-18.267 0.138-48.876 0.465-96.04 3.431-105.26 8.548-18.429 10.231-105.4 157.66-105.19 177.77 0.157 14.602 47.625 93.85 80.79 140.07-0.377 0.706-0.798 1.433-1.172 2.137h2.689c11.864 16.378 21.77 28.351 26.676 30.95 18.645 9.879 195.6 8.232 214.03-1.999 18.429-10.231 107.19-155.04 106.98-175.15-0.216-20.11-92.54-167.41-111.18-177.29-8.157-4.323-47.612-5.306-90.09-5.169m-16.957 42.32c20.05-0.196 39.633 0.498 54.938 1.724l-52.04 87.27-53.01-86.78c13.341-1.21 30.715-2.02 50.11-2.205m105.94 34.33c25.329 36.18 60.06 95.34 60.18 106.84 0.115 10.977-31.2 67.17-55.828 104.77-4.375-7.526-8.977-15.309-14.06-23.714-15.357-25.655-34.379-53.55-57-83.61l66.73-104.3m-208.45 4.481 64.52 98.99c-19.398 27.586-37.04 53.686-52.945 78.24-5.857 9.201-11.285 18.198-16.613 27.09-25.398-35.933-57.11-88.12-57.21-98.91-0.117-11.166 35.467-68.33 62.24-105.39m101.74 148.68c12.12 17.1 22.755 33.906 31.917 50.46 9.01 15.546 17.209 30.958 24.746 46.26-32.541 1.828-84.36 0.693-113.8-2.482 2.304-4.595 5.28-10.223 9.03-16.888 5.119-9.104 10.547-18.605 16.199-28.537 5.926-9.931 11.713-19.296 17.37-28.12 5.927-8.827 10.772-15.714 14.55-20.679" fill="#fff"/>
</svg>
